sites/all/themes/iobytheme/img/instagram-logo-footer.svg

<svg height="32" viewBox="0 0 32 32" width="32" xmlns="http://www.w3.org/2000/svg"><path d="m290.667991 15.9999448c0-2.9454141 2.387192-5.3337011 5.332671-5.3337011 2.94548 0 5.33394 2.388287 5.33394 5.3337011 0 2.9454142-2.388405 5.3337012-5.33394 5.3337012s-5.332671-2.388287-5.332671-5.3337012m-2.883411 0c0 4.5375687 3.678332 8.2157779 8.216137 8.2157779 4.53786 0 8.216137-3.6782092 8.216137-8.2157779s-3.678332-8.21577779-8.216137-8.21577779c-4.53786 0-8.216137 3.67820909-8.216137 8.21577779m14.837301-8.54145831c0 1.05979959.859528 1.92059365 1.920655 1.92059365 1.059858 0 1.920656-.86079406 1.920656-1.92059365 0-1.05974441-.859473-1.919104-1.920656-1.919104-1.061072-.00011035-1.920655.85935959-1.920655 1.919104m-13.086024 21.56498231c-1.559995-.0711167-2.407937-.3309219-2.971355-.5505617-.747032-.2908118-1.2795-.6371818-1.840436-1.1967366-.559667-.5597203-.907252-1.0921304-1.19674-1.8391597-.219696-.563472-.479502-1.4112455-.550564-2.9712347-.077462-1.6865539-.093075-2.1931435-.093075-6.4658313 0-4.2726877.016772-4.7780084.093075-6.46588641.071117-1.55982373.332192-2.40632824.550564-2.97123469.290813-.74697415.637184-1.27943945 1.19674-1.84037351.559668-.55960993 1.092135-.90713857 1.840436-1.1966814.563473-.21963987 1.41136-.4793898 2.971355-.55056172 1.686615-.07746154 2.193261-.09302005 6.46486-.09302005 4.272868 0 4.778191.0167723 6.466185.09302005 1.559884.07111675 2.406557.33219081 2.971245.55056172.747032.28954283 1.279554.63718181 1.840435 1.1966814.559667.55972028.906038 1.09339936 1.196796 1.84037351.21964.56352715.479446 1.41130062.550563 2.97123469.077517 1.68798831.093076 2.19319871.093076 6.46588641 0 4.2713637-.015448 4.7780085-.093076 6.4658313-.071117 1.5598789-.332192 2.4077627-.550563 2.9712347-.290813.7470293-.63724 1.2794394-1.196796 1.8391597-.559667.5596099-1.093403.90598-1.840435 1.1967366-.563529.2195295-1.411361.4793346-2.971245.5505617-1.68667.0775167-2.193317.0930752-6.466185.0930752-4.271599-.0001103-4.778245-.0155585-6.46486-.0930752m-.131917-28.92647637c-1.703442.07751671-2.866638.34769416-3.883849.74311212-1.052079.40838339-1.943827.95651754-2.834362 1.84555969-.889211.88915249-1.437182 1.78095323-1.845622 2.83424252-.395474 1.01715161-.665597 2.18034358-.743169 3.88366977-.078842 1.70597447-.096938 2.25134997-.096938 6.59642347s.018096 4.890449.096993 6.5964235c.077517 1.7033813.347695 2.8665733.74317 3.8837249.40844 1.05191.955141 1.94509 1.845621 2.8342425.889211.8890422 1.780959 1.435797 2.834362 1.8455045 1.018425.3954732 2.180352.6655403 3.883849.7431673 1.70736.0775167 2.251523.0969373 6.596667.0969373 4.346523 0 4.890631-.0180413 6.596722-.0969373 1.703443-.0775167 2.866639-.3476941 3.883794-.7431673 1.052079-.4097075 1.943883-.9564623 2.834362-1.8455045.889211-.8891525 1.435968-1.7823325 1.845677-2.8342425.395474-1.0171516.666866-2.1803436.74317-3.8837249.077517-1.7071883.095613-2.25135.095613-6.5964235s-.018096-4.890449-.095613-6.59647864c-.077573-1.70332619-.347696-2.86657334-.74317-3.88366977-.409709-1.05196516-.956466-1.94371074-1.845677-2.83424253-.889155-.88904214-1.782283-1.43717629-2.833093-1.84555968-1.018424-.39541796-2.18162-.66686437-3.883849-.74311212-1.706036-.0775167-2.251523-.09693726-6.596612-.09693726-4.346523.00005517-4.890631.0181516-6.598046.09699243" fill="#3da9e0" transform="translate(-280)"/></svg>

<svg width="32px" height="32px" viewBox="0 0 32 32" version="1.1" xmlns="http://www.w3.org/2000/svg" xmlns:xlink="http://www.w3.org/1999/xlink">
    <!-- Generator: Sketch 48.2 (47327) - http://www.bohemiancoding.com/sketch -->
    <desc>Created with Sketch.</desc>
    <defs></defs>
    <g id="R3" stroke="none" stroke-width="1" fill="none" fill-rule="evenodd">
        <g id="ROUND-3—no-cart,-one-promo-Copy" transform="translate(-1129.000000, -7379.000000)" fill="#3DA9E0" fill-rule="nonzero">
            <g id="Footer" transform="translate(0.000000, 6840.000000)">
                <g id="Group-6">
                    <g id="Group-3" transform="translate(179.000000, 0.000000)">
                        <g id="Group" transform="translate(670.000000, 539.000000)">
                            <path d="M290.667991,15.9999448 C290.667991,13.0545307 293.055183,10.6662437 296.000662,10.6662437 C298.946142,10.6662437 301.334602,13.0545307 301.334602,15.9999448 C301.334602,18.945359 298.946197,21.333646 296.000662,21.333646 C293.055127,21.333646 290.667991,18.945359 290.667991,15.9999448 M287.78458,15.9999448 C287.78458,20.5375135 291.462912,24.2157227 296.000717,24.2157227 C300.538577,24.2157227 304.216854,20.5375135 304.216854,15.9999448 C304.216854,11.4623761 300.538522,7.78416701 296.000717,7.78416701 C291.462857,7.78416701 287.78458,11.4623761 287.78458,15.9999448 M302.621881,7.45848649 C302.621881,8.51828608 303.481409,9.37908014 304.542536,9.37908014 C305.602394,9.37908014 306.463192,8.51828608 306.463192,7.45848649 C306.463192,6.39874208 305.603719,5.53938249 304.542536,5.53938249 C303.481464,5.53927214 302.621881,6.39874208 302.621881,7.45848649 M289.535857,29.0234688 C287.975862,28.9523521 287.12792,28.6925469 286.564502,28.4729071 C285.81747,28.1820953 285.285002,27.8357253 284.724066,27.2761705 C284.164399,26.7164502 283.816814,26.1840401 283.527326,25.4370108 C283.30763,24.8735388 283.047824,24.0257653 282.976762,22.4657761 C282.8993,20.7792222 282.883687,20.2726326 282.883687,15.9999448 C282.883687,11.7272571 282.900459,11.2219364 282.976762,9.53405839 C283.047879,7.97423466 283.308954,7.12773015 283.527326,6.5628237 C283.818139,5.81584955 284.16451,5.28338425 284.724066,4.72245019 C285.283734,4.16284026 285.816201,3.81531162 286.564502,3.52576879 C287.127975,3.30612892 287.975862,3.04637899 289.535857,2.97520707 C291.222472,2.89774553 291.729118,2.88218702 296.000717,2.88218702 C300.273585,2.88218702 300.778908,2.89895932 302.466902,2.97520707 C304.026786,3.04632382 304.873459,3.30739788 305.438147,3.52576879 C306.185179,3.81531162 306.717701,4.1629506 307.278582,4.72245019 C307.838249,5.28217047 308.18462,5.81584955 308.475378,6.5628237 C308.695018,7.12635085 308.954824,7.97412432 309.025941,9.53405839 C309.103458,11.2220467 309.119017,11.7272571 309.119017,15.9999448 C309.119017,20.2713085 309.103569,20.7779533 309.025941,22.4657761 C308.954824,24.025655 308.693749,24.8735388 308.475378,25.4370108 C308.184565,26.1840401 307.838138,26.7164502 307.278582,27.2761705 C306.718915,27.8357804 306.185179,28.1821505 305.438147,28.4729071 C304.874618,28.6924366 304.026786,28.9522417 302.466902,29.0234688 C300.780232,29.1009855 300.273585,29.116544 296.000717,29.116544 C291.729118,29.1164337 291.222472,29.1009855 289.535857,29.0234688 M289.40394,0.0969924345 C287.700498,0.174509141 286.537302,0.444686588 285.520091,0.840104551 C284.468012,1.24848794 283.576264,1.79662209 282.685729,2.68566424 C281.796518,3.57481673 281.248547,4.46661747 280.840107,5.51990676 C280.444633,6.53705837 280.17451,7.70025034 280.096938,9.40357653 C280.018096,11.109551 280,11.6549265 280,16 C280,20.3450735 280.018096,20.890449 280.096993,22.5964235 C280.17451,24.2998048 280.444688,25.4629968 280.840163,26.4801484 C281.248603,27.5320584 281.795304,28.4252384 282.685784,29.3143909 C283.574995,30.2034331 284.466743,30.7501879 285.520146,31.1598954 C286.538571,31.5553686 287.700498,31.8254357 289.403995,31.9030627 C291.111355,31.9805794 291.655518,32 296.000662,32 C300.347185,32 300.891293,31.9819587 302.597384,31.9030627 C304.300827,31.825546 305.464023,31.5553686 306.481178,31.1598954 C307.533257,30.7501879 308.425061,30.2034331 309.31554,29.3143909 C310.204751,28.4252384 310.751508,27.5320584 311.161217,26.4801484 C311.556691,25.4629968 311.828083,24.2998048 311.904387,22.5964235 C311.981904,20.8892352 312,20.3450735 312,16 C312,11.6549265 311.981904,11.109551 311.904387,9.40352136 C311.826814,7.70019517 311.556691,6.53694802 311.161217,5.51985159 C310.751508,4.46788643 310.204751,3.57614085 309.31554,2.68560906 C308.426385,1.79656692 307.533257,1.24843277 306.482447,0.840049379 C305.464023,0.444631416 304.300827,0.173185013 302.598598,0.0969372625 C300.892562,0.0194205557 300.347075,0 296.001986,0 C291.655463,5.51720333e-05 291.111355,0.018151599 289.40394,0.0969924345" id="Shape"></path>
                        </g>
                    </g>
                </g>
            </g>
        </g>
    </g>
</svg>
